!!!COM: Hindemith, Paul
!!!OTL: Violin Concerto
!!!OMV: III: Lebhaft (Lively)
!!!example: 649
!!!work: Hin-70
**kern	**kern	**dynam	**kern	**kern	**dynam	**kern	**dynam	**kern	**dynam	**kern	**dynam	**kern	**dynam	**kern	**dynam	**kern	**dynam	**kern	**dynam	**kern	**dynam
*part12	*part11	*part11	*part10	*part9	*part9	*part8	*part8	*part7	*part7	*part6	*part6	*part5	*part5	*part4	*part4	*part3	*part3	*part2	*part2	*part1	*part1
*staff12	*staff11	*	*staff10	*staff9	*	*staff8	*	*staff7	*	*staff6	*	*staff5	*	*staff4	*	*staff3	*	*staff2	*	*staff1	*
*I"Contrabass	*I"Violoncello	*	*I"Viola	*I"Violin II	*	*I"Violin I	*	*I"Violin	*	*I"Percussion	*	*I"Bassoon	*	*I"Bassoon	*	*I"Bass Clarinet in Bb	*	*I"Clarinet in Bb	*	*I"Clarinet in Bb	*
*I'Cb.	*I'Vc.	*	*I'Vla.	*I'Vln. II	*	*I'Vln. I	*	*I'Vln.	*	*I'Perc.	*	*I'Bsn.	*	*I'Bsn.	*	*I'B. Cl.	*	*I'Cl.	*	*I'Cl.	*
*clefF4	*clefF4	*	*clefC3	*clefG2	*	*clefG2	*	*clefG2	*	*clefpercussion0	*	*clefC4	*	*clefC4	*	*clefG2	*	*clefG2	*	*clefG2	*
*k[]	*k[]	*	*k[]	*k[]	*	*k[]	*	*k[]	*	*	*	*k[]	*	*k[]	*	*k[]	*	*k[]	*	*k[]	*
*	*	*	*	*	*	*	*	*	*	*	*	*	*	*	*	*	*	*	*	*	*
*M2/4	*M2/4	*	*M2/4	*M2/4	*	*M2/4	*	*M2/4	*	*M2/4	*	*M2/4	*	*M2/4	*	*M2/4	*	*M2/4	*	*M2/4	*
=12	=	=	=	=	=	=	=	=	=	=	=	=	=	=	=	=	=	=	=	=	=
8DD-X	8A-X	.	8D-X	2r	.	2r	.	[2ddd-X	mf	2r	.	2r	.	8g-X'L	p	8e-X'L	p	8d-X'L	p	8a-X'L	p
8r	8r	.	8r	.	.	.	.	.	.	.	.	.	.	8g-'J	.	8e-'J	.	8d-'J	.	8a-'J	.
4r	4r	.	4r	.	.	.	.	.	.	.	.	.	.	8r	.	8r	.	8r	.	8r	.
.	.	.	.	.	.	.	.	.	.	.	.	.	.	8g-'	.	8e-'	.	8d-'	.	8a-'	.
=13	=13	=13	=13	=13	=13	=13	=13	=13	=13	=13	=13	=13	=13	=13	=13	=13	=13	=13	=13	=13	=13
2r	2r	.	2r	2r	.	2r	.	4ddd-]	.	2r	.	2r	.	8g-X'	.	8e-X'	.	8d-X'	.	8a-X'	.
.	.	.	.	.	.	.	.	.	.	.	.	.	.	8r	.	8r	.	8r	.	8r	.
.	.	.	.	.	.	.	.	(16ddd-XLL	.	.	.	.	.	8g-'L	.	8e-'L	.	8d-'L	.	8a-'L	.
.	.	.	.	.	.	.	.	16eee	.	.	.	.	.	.	.	.	.	.	.	.	.
.	.	.	.	.	.	.	.	16ggg-X	.	.	.	.	.	8g-'J	.	8e-'J	.	8d-'J	.	8a-'J	.
.	.	.	.	.	.	.	.	16eeeJJ	.	.	.	.	.	.	.	.	.	.	.	.	.
=14	=14	=14	=14	=14	=14	=14	=14	=14	=14	=14	=14	=14	=14	=14	=14	=14	=14	=14	=14	=14	=14
2r	2r	.	2r	2r	.	2r	.	8ddd-XL)	.	2r	.	2r	.	8r	.	8r	.	8r	.	8r	.
.	.	.	.	.	.	.	.	8bb-X'J	.	.	.	.	.	8g-X'	.	8e-X'	.	8d-X'	.	8a-X'	.
.	.	.	.	.	.	.	.	8aa-X'L	.	.	.	.	.	8g-'	.	8e-'	.	8d-'	.	8a-'	.
.	.	.	.	.	.	.	.	8eeJ)	.	.	.	.	.	8r	.	8r	.	8r	.	8r	.
=15	=15	=15	=15	=15	=15	=15	=15	=15	=15	=15	=15	=15	=15	=15	=15	=15	=15	=15	=15	=15	=15
2r	2r	.	2r	2r	.	2r	.	8aa-XL	.	2r	.	2r	.	8g-X'L	.	8e-X'L	.	8d-X'L	.	8a-X'L	.
.	.	.	.	.	.	.	.	(16aa-L	.	.	.	.	.	8g-'J	.	8e-'J	.	8d-'J	.	8a-'J	.
.	.	.	.	.	.	.	.	16eeJJ	.	.	.	.	.	.	.	.	.	.	.	.	.
.	.	.	.	.	.	.	.	8ddnL)	.	.	.	.	.	8r	.	8r	.	8r	.	8r	.
.	.	.	.	.	.	.	.	8anJ)	.	.	.	.	.	8g-'	.	8B-X'	.	8e-X'	.	8a-'	.
=16	=16	=16	=16	=16	=16	=16	=16	=16	=16	=16	=16	=16	=16	=16	=16	=16	=16	=16	=16	=16	=16
2r	2r	.	2r	2r	.	2r	.	(16b#XLL	.	2r	.	2r	.	8g-X	.	8B-X	.	8e-X	.	8a-X	.
.	.	.	.	.	.	.	.	16a#X	.	.	.	.	.	.	.	.	.	.	.	.	.
.	.	.	.	.	.	.	.	16b#	.	.	.	.	.	8r	.	8r	.	8r	.	8r	.
.	.	.	.	.	.	.	.	16ee#XJJ	.	.	.	.	.	.	.	.	.	.	.	.	.
.	.	.	.	.	.	.	.	[4b#	.	.	.	.	.	8g-L	.	8B-L	.	8e-L	.	8a-L	.
.	.	.	.	.	.	.	.	.	.	.	.	.	.	8g-J	.	8B-J	.	8e-J	.	8a-J	.
=17	=17	=17	=17	=17	=17	=17	=17	=17	=17	=17	=17	=17	=17	=17	=17	=17	=17	=17	=17	=17	=17
2r	2r	.	2r	2r	.	2r	.	8b#L])	<	2r	.	8r	.	8r	.	8r	.	8r	.	8r	.
.	.	.	.	.	.	.	.	(16anL	.	.	.	8G-X	<	8g-X	<	8Bn	<	8en	<	8an	<
.	.	.	.	.	.	.	.	16b#XJJ	.	.	.	.	.	.	.	.	.	.	.	.	.
.	.	.	.	.	.	.	.	8dd#XL)	.	.	.	8G-	.	8g-	.	8B	.	8e	.	8a	.
.	.	.	.	.	.	.	.	8ee'J)	.	.	.	8r	.	8r	.	8r	.	8r	.	8r	.
=18	=18	=18	=18	=18	=18	=18	=18	=18	=18	=18	=18	=18	=18	=18	=18	=18	=18	=18	=18	=18	=18
2r	2r	.	2r	2r	.	2r	.	8eeL	.	2r	.	8G-XL	.	8g-XL	.	8BL	.	8eL	.	8aL	.
.	.	.	.	.	.	.	.	(16ddL	.	.	.	8G-J	.	8g-J	.	8BJ	.	8eJ	.	8aJ	.
.	.	.	.	.	.	.	.	16eeJJ	.	.	.	.	.	.	.	.	.	.	.	.	.
.	.	.	.	.	.	.	.	8ggL)	.	.	.	8r	.	8r	.	8r	.	8r	.	8r	.
.	.	.	.	.	.	.	.	8aa'J)	.	.	.	8G-	.	8g-	.	8B	.	8e	.	8a	.
=19	=19	=19	=19	=19	=19	=19	=19	=19	=19	=19	=19	=19	=19	=19	=19	=19	=19	=19	=19	=19	=19
2r	2r	.	2r	2r	.	2r	.	8cccL	.	2r	.	8G-X	.	8g-X	.	8B	.	8e	.	8a	.
.	.	.	.	.	.	.	.	(16ggL	.	.	.	8r	[	8r	[	8r	[	8r	[	8r	[
.	.	.	.	.	.	.	.	16aaJJ	.	.	.	.	.	.	.	.	.	.	.	.	.
.	.	.	.	.	.	.	.	8cccL)	.	.	.	8G-L	.	8g-L	.	8BL	.	8eL	.	8aL	.
.	.	.	.	.	.	.	.	8ddd'J)	[[	.	.	8G-J	.	8g-J	.	8BJ	.	8eJ	.	8aJ	.
=20	=20	=20	=20	=20	=20	=20	=20	=20	=20	=20	=20	=20	=20	=20	=20	=20	=20	=20	=20	=20	=20
!!linebreak:original
2r	2r	.	2r	2r	.	2r	.	(16fffLL	[	2r	.	8r	.	8r	.	8r	.	8r	.	8r	.
.	.	.	.	.	.	.	.	16eee	.	.	.	.	.	.	.	.	.	.	.	.	.
.	.	.	.	.	.	.	.	16fff	.	.	.	8F	>	8f	>	8c	>	8e	>	8b-X	>
.	.	.	.	.	.	.	.	16eeeJJ)	.	.	.	.	.	.	.	.	.	.	.	.	.
.	.	.	.	.	.	.	.	[4eee-X	.	.	.	8F	.	8f	.	8c	.	8e	.	8b-	.
.	.	.	.	.	.	.	.	.	.	.	.	8r	.	8r	.	8r	.	8r	.	8r	.
=21	=21	=21	=21	=21	=21	=21	=21	=21	=21	=21	=21	=21	=21	=21	=21	=21	=21	=21	=21	=21	=21
2r	2r	.	2r	4r	.	4r	.	8eee-L]	.	2r	.	8FL	.	8fL	.	8cL	.	8eL	.	8b-XL	.
.	.	.	.	.	.	.	.	(8aaa-XJ	.	.	.	8FJ	.	8fJ	.	8cJ	.	8eJ	.	8b-J	.
.	.	.	.	8r	.	8r	.	8fffL)	.	.	.	4r	]	4r	]	4r	]	4r	]	4r	]
.	.	.	.	(8a-X	mp	(8aa-X	mp	8eee-XJ	.	.	.	.	.	.	.	.	.	.	.	.	.
*	*	*	*	*	*	*	*	*	*	*	*	*clefF4	*	*clefF4	*	*	*	*	*	*	*
=22	=22	=22	=22	=22	=22	=22	=22	=22	=22	=22	=22	=22	=22	=22	=22	=22	=22	=22	=22	=22	=22
2r	2r	.	2r	8fL)	.	8ffL)	.	8dddnL	.	2r	.	2r	.	2r	.	2r	.	2r	.	2r	.
.	.	.	.	(8e-XJ	.	(8ee-XJ	.	(8fffJ	.	.	.	.	.	.	.	.	.	.	.	.	.
.	.	.	.	8dnL)	.	8ddnL)	.	8cccL)	.	.	.	.	.	.	.	.	.	.	.	.	.
.	.	.	.	8f'J)	.	8ff'J)	.	8bbn'J)	.	.	.	.	.	.	.	.	.	.	.	.	.
=23	=23	=23	=23	=23	=23	=23	=23	=23	=23	=23	=23	=23	=23	=23	=23	=23	=23	=23	=23	=23	=23
2r	4r	.	2r	(8cL	.	(8ccL	.	4.bb-X	.	2r	.	4r	.	4r	.	2r	.	2r	.	2r	.
.	.	.	.	8d-XJ)	.	8dd-XJ)	.	.	.	.	.	.	.	.	.	.	.	.	.	.	.
!	!LO:TX:t=pizz.	!	!	!	!	!	!	!	!	!	!	!	!	!	!	!	!	!	!	!	!
.	8E-X	mf	.	8r	.	8r	.	.	.	.	.	8E-X	mf	8E-X	mf	.	.	.	.	.	.
.	8r	.	.	8c	.	8cc	.	(8bb-	>	.	.	8r	.	8r	.	.	.	.	.	.	.
=24	=24	=24	=24	=24	=24	=24	=24	=24	=24	=24	=24	=24	=24	=24	=24	=24	=24	=24	=24	=24	=24
2r	8F	.	2r	(8B-XL	>	(8b-XL	>	4.aa-X)	.	2r	.	8F	.	8F	.	2r	.	2r	.	2r	.
.	8r	.	.	8cJ)	.	8ccJ)	.	.	.	.	.	8r	.	8r	.	.	.	.	.	.	.
.	8G-X	.	.	8r	.	8r	.	.	.	.	.	8G-X	.	8G-X	.	.	.	.	.	.	.
.	8r	.	.	8B-	]]	8b-	]]	8aa-')	]]	.	.	8r	.	8r	.	.	.	.	.	.	.
*	*	*	*	*	*	*	*	*	*	*	*	*clefC4	*	*clefC4	*	*	*	*	*	*	*
=25	=25	=25	=25	=25	=25	=25	=25	=25	=25	=25	=25	=25	=25	=25	=25	=25	=25	=25	=25	=25	=25
!	!LO:TX:t=arco	!	!	!	!	!	!	!	!	!	!	!	!	!	!	!	!	!	!	!	!
2r	(4d-X	p	2r	8A-X	]	8a-X	]	[2ddd-X	]	8x	pp	8dn	p	8g-XL	p	8e-XL	p	8d-XL	p	8a-XL	p
.	.	.	.	8r	.	8r	.	.	.	8r	.	8r	.	8g-J	.	8e-J	.	8d-J	.	8a-J	.
.	4B-X	.	.	4r	.	4r	.	.	.	8r	.	4r	.	8r	.	8r	.	8r	.	8r	.
.	.	.	.	.	.	.	.	.	.	8x	.	.	.	8g-	.	8e-	.	8d-	.	8a-	.
=26	=26	=26	=26	=26	=26	=26	=26	=26	=26	=26	=26	=26	=26	=26	=26	=26	=26	=26	=26	=26	=26
2r	4A-X	.	2r	2r	.	2r	.	4ddd-]	.	8x	.	2r	.	8g-X	.	8e-X	.	8d-X	.	8a-X	.
.	.	.	.	.	.	.	.	.	.	8r	.	.	.	8r	.	8r	.	8r	.	8r	.
.	4Gn)	.	.	.	.	.	.	(16ddd-XLL	.	4r	.	.	.	8g-L	.	8e-L	.	8d-L	.	8a-L	.
.	.	.	.	.	.	.	.	16eee-X	.	.	.	.	.	.	.	.	.	.	.	.	.
.	.	.	.	.	.	.	.	16ggg-X	.	.	.	.	.	8g-J	.	8e-J	.	8d-J	.	8a-J	.
.	.	.	.	.	.	.	.	16eee-JJ	.	.	.	.	.	.	.	.	.	.	.	.	.
=27	=27	=27	=27	=27	=27	=27	=27	=27	=27	=27	=27	=27	=27	=27	=27	=27	=27	=27	=27	=27	=27
2r	(4E-X	.	2r	2r	.	2r	.	8ddd-X'L)	.	2r	.	2r	.	8r	.	8r	.	8r	.	8r	.
.	.	.	.	.	.	.	.	8bb-X'J	.	.	.	.	.	8g-X	.	8e-X	.	8d-X	.	8a-X	.
.	4Dn)	.	.	.	.	.	.	8aa-X'L	.	.	.	.	.	8g-	.	8e-	.	8d-	.	8a-	.
.	.	.	.	.	.	.	.	8ee-X'J)	.	.	.	.	.	8r	.	8r	.	8r	.	8r	.
==	==	==	==	==	==	==	==	==	==	==	==	==	==	==	==	==	==	==	==	==	==
*-	*-	*-	*-	*-	*-	*-	*-	*-	*-	*-	*-	*-	*-	*-	*-	*-	*-	*-	*-	*-	*-
!!!CDT: 1895/11/16-1963/12/28
!!!CBL: Hanau, Germany
!!!CDL: Frankfurt, Germany
!!!CNT: German
!!!AGN: Orchestral; Concerto
!!!MCN: Mengelberg, Willem
!!!MDT: 1940/03/14
!!!MGN: Concertgebouw Orchestra
!!!MLC: Amsterdam, The Netherlands
!!!MPD: 1940
!!!MPN: Helmann, Ferdinand
!!!ODT: 1939
!!!PDT: 1939
!!!excerpt-start-measure: 12
!!!excerpt-end-measure: 27
!!!excerpt-start-time: 0:09
!!!excerpt-end-time: 0:22
!!!EEV: 2020/01/17
!!!system-decoration: [(s1,s2,s3,s4,s5)]s6[(s7,s8,s9,s10,s11,s12)]
!!!ONB: Converted from MusicXML on 2020/01/17
